assets/icons/qvision/cast_connected.svg

<svg xmlns="http://www.w3.org/2000/svg" height="24" viewBox="0 0 24 24" width="24"><path d="M0 0h24v24H0z" fill="none"/><path d="M0 0h24v24H0z" fill="none" opacity=".1"/><path d="M1 18v3h3c0-1.66-1.34-3-3-3zm0-4v2c2.76 0 5 2.24 5 5h2c0-3.87-3.13-7-7-7zm18-7H5v1.63c3.96 1.28 7.09 4.41 8.37 8.37H19V7zM1 10v2c4.97 0 9 4.03 9 9h2c0-6.08-4.93-11-11-11zm20-7H3c-1.1 0-2 .9-2 2v3h2V5h18v14h-7v2h7c1.1 0 2-.9 2-2V5c0-1.1-.9-2-2-2z"/></svg>

<svg width="24" height="24" viewBox="0 0 24 24" fill="none" xmlns="http://www.w3.org/2000/svg">
<g clip-path="url(#clip0_147_2926)">
<path d="M1 18V21H4C4 19.34 2.66 18 1 18ZM1 14V16C3.76 16 6 18.24 6 21H8C8 17.13 4.87 14 1 14ZM19 7H5V8.63C8.96 9.91 12.09 13.04 13.37 17H19V7ZM1 10V12C5.97 12 10 16.03 10 21H12C12 14.92 7.07 10 1 10ZM21 3H3C1.9 3 1 3.9 1 5V8H3V5H21V19H14V21H21C22.1 21 23 20.1 23 19V5C23 3.9 22.1 3 21 3Z" fill="#323232"/>
</g>
<defs>
<clipPath id="clip0_147_2926">
<rect width="24" height="24" fill="white"/>
</clipPath>
</defs>
</svg>
